humanity-icon-theme/Humanity/apps/24/preferences-desktop-locale.svg

<?xml version="1.0" encoding="UTF-8" standalone="no"?>
<!-- Created with Inkscape (http://www.inkscape.org/) -->

<svg
   xmlns:svg="http://www.w3.org/2000/svg"
   xmlns="http://www.w3.org/2000/svg"
   xmlns:xlink="http://www.w3.org/1999/xlink"
   version="1.1"
   width="24"
   height="24"
   id="svg4289">
  <defs
     id="defs4291">
    <linearGradient
       id="linearGradient4120">
      <stop
         id="stop4122"
         style="stop-color:white;stop-opacity:1"
         offset="0" />
      <stop
         id="stop4124"
         style="stop-color:white;stop-opacity:0.23529412"
         offset="1" />
    </linearGradient>
    <linearGradient
       id="linearGradient3927">
      <stop
         id="stop3929"
         style="stop-color:#8badea;stop-opacity:1"
         offset="0" />
      <stop
         id="stop3931"
         style="stop-color:#6396cd;stop-opacity:1"
         offset="0.34314865" />
      <stop
         id="stop3933"
         style="stop-color:#3b7caf;stop-opacity:1"
         offset="0.69597507" />
      <stop
         id="stop3935"
         style="stop-color:#206494;stop-opacity:1"
         offset="1" />
    </linearGradient>
    <linearGradient
       x1="-2.8531663"
       y1="19.599176"
       x2="28.05953"
       y2="19.599176"
       id="linearGradient2871"
       xlink:href="#linearGradient3927"
       gradientUnits="userSpaceOnUse"
       gradientTransform="matrix(0.67782826,0,0,0.66753171,-3.9522622,-0.83078349)"
       spreadMethod="pad" />
    <linearGradient
       id="linearGradient4873">
      <stop
         id="stop4875"
         style="stop-color:white;stop-opacity:1"
         offset="0" />
      <stop
         id="stop4877"
         style="stop-color:white;stop-opacity:0"
         offset="1" />
    </linearGradient>
    <linearGradient
       id="linearGradient2490-182-124">
      <stop
         id="stop2788"
         style="stop-color:#1f4a69;stop-opacity:1"
         offset="0" />
      <stop
         id="stop2790"
         style="stop-color:#4083c2;stop-opacity:1"
         offset="1" />
    </linearGradient>
    <linearGradient
       id="linearGradient8838">
      <stop
         id="stop8840"
         style="stop-color:black;stop-opacity:1"
         offset="0" />
      <stop
         id="stop8842"
         style="stop-color:black;stop-opacity:0"
         offset="1" />
    </linearGradient>
    <linearGradient
       x1="30"
       y1="30"
       x2="-11"
       y2="30"
       id="linearGradient3943"
       xlink:href="#linearGradient2490-182-124"
       gradientUnits="userSpaceOnUse"
       gradientTransform="matrix(0.51106094,0,0,0.4998691,-0.26454854,0.25542991)"
       spreadMethod="pad" />
    <radialGradient
       cx="62.625"
       cy="4.625"
       r="10.625"
       fx="62.625"
       fy="4.625"
       id="radialGradient3991"
       xlink:href="#linearGradient8838"
       gradientUnits="userSpaceOnUse"
       gradientTransform="matrix(1.2235296,0,0,0.37647019,-64.623575,18.258824)" />
    <linearGradient
       x1="1.999663"
       y1="24.491188"
       x2="37.661129"
       y2="24.491188"
       id="linearGradient4007"
       xlink:href="#linearGradient4873"
       gradientUnits="userSpaceOnUse"
       gradientTransform="matrix(0.48836692,0,0,0.47033453,0.27924771,0.98094854)" />
    <linearGradient
       x1="6.0052142"
       y1="12.517409"
       x2="18.981974"
       y2="12.517409"
       id="linearGradient4019"
       xlink:href="#linearGradient4120"
       gradientUnits="userSpaceOnUse" />
  </defs>
  <path
     d="M 25,19.999999 C 25,22.20914 19.179698,24 12,24 4.8203007,24 -1,22.20914 -1,19.999999 -1,17.790861 4.8203007,16 12,16 c 7.179698,0 13,1.790861 13,3.999999 l 0,0 z"
     id="path8836"
     style="opacity:0.3;fill:url(#radialGradient3991);fill-opacity:1;fill-rule:evenodd;stroke:none;stroke-width:0.99999988;marker:none;visibility:visible;display:inline;overflow:visible" />
  <path
     d="M 0.50204275,5.1406511 C 0.47945686,4.3542322 3.9311696,3.3861473 7.467666,3.5109367 11.004031,3.6357207 11.948177,4.8390971 15.955259,5.0041864 19.666828,5.1570998 23.52237,4.0047503 23.499784,4.806 l 0,14.909834 c 0.03194,1.059083 -3.497202,1.79556 -7.505232,1.784033 C 11.98654,21.488347 11.24207,20.067506 7.467666,20.000259 3.6954037,19.933059 0.40621895,21.368864 0.50204275,19.889 l 0,-14.7483489 z"
     id="path4319"
     style="fill:url(#linearGradient2871);fill-opacity:1;fill-rule:evenodd;stroke:url(#linearGradient3943);stroke-width:1;stroke-linecap:butt;stroke-linejoin:round;stroke-miterlimit:4;stroke-opacity:1;stroke-dasharray:none" />
  <path
     d="M 1.5001655,5.7278724 C 1.47352,5.2139583 4.6872136,4.3790186 7.9159117,4.514701 11.131859,4.6498456 11.990759,5.7966006 15.636869,5.9194599 19.323338,6.0436805 22.515729,5.2440149 22.499941,5.649 l 0,13.71366 c -0.0083,0.431669 -3.178001,1.149955 -6.827327,1.137171 C 12.026632,20.487071 11.349146,19.071706 7.9159117,19.001225 4.4843754,18.930795 1.5001655,20.06658 1.5001655,18.984 l 0,-13.2561276 z"
     id="path5213"
     style="opacity:0.3;fill:none;stroke:url(#linearGradient4007);stroke-width:1;stroke-linecap:butt;stroke-linejoin:miter;stroke-miterlimit:4;stroke-opacity:1;stroke-dasharray:none" />
  <path
     d="M 11.78125,7.0625 C 10.911237,7.1940097 10.089171,7.6130404 9.4454867,8.2116507 8.8514855,8.7586789 8.4385249,9.4886936 8.1875,10.25 c -0.2099827,0.827825 -0.3059275,1.738111 0.03906,2.543745 0.2123731,0.565091 0.4936719,1.105142 0.8671896,1.581255 0.00716,0.201612 -0.2683083,0.257857 -0.25,0.46875 0.2744746,-0.227022 0.7793434,-0.125367 0.90625,0.21875 0.888613,0.668499 1.961118,1.065839 3.054257,1.254601 0.934334,0.08063 1.927074,-0.106524 2.726993,-0.629601 0.822578,-0.523114 1.265737,-1.459793 1.407702,-2.398608 0.174289,-0.920769 -0.0095,-1.874686 -0.395474,-2.718694 C 16.078636,9.5952281 15.527003,8.6015706 14.631903,7.9570783 13.841929,7.3705108 12.847534,6.957095 11.849855,7.0539244 L 11.78125,7.0625 z M 7.15625,8 C 6.4217384,8.6752705 6.2557755,9.7473199 6.0625,10.6875 5.9525952,11.541717 5.9993864,12.410603 6.2318372,13.239849 6.4630145,14.145975 6.8980254,14.989793 7.4375,15.75 c 0.6381499,0.736007 1.3581386,1.424307 2.2917056,1.762518 0.6429994,0.313607 1.4012884,0.590258 2.1145444,0.393732 0.345385,-0.358859 -0.04078,-0.889924 -0.46875,-0.9375 C 10.498601,16.788297 9.6626295,16.406365 8.9549526,15.849781 8.2602129,15.233166 7.6835935,14.44555 7.343777,13.578199 7.0261912,12.714262 6.9375821,11.788695 7.03125,10.875 7.0966253,10.127146 7.3560417,9.4306768 7.71875,8.78125 7.8323446,8.5126985 7.8347733,8.1315353 7.5,8.03125 7.4017718,7.9611913 7.2637737,7.9410165 7.15625,8 z m 5.0625,0.09375 c 0.878142,0.078962 1.75606,0.4120816 2.34375,1.09375 0.409868,0.6421182 0.98203,1.203703 1.15625,1.96875 -0.53125,-0.625 -1.0625,-1.25 -1.59375,-1.875 0.09375,0.4270833 0.1875,0.854167 0.28125,1.28125 -0.615371,-0.699426 -1.345706,-1.6005082 -2.395787,-1.4094587 -0.77736,0.118106 -1.521284,0.6192466 -1.791713,1.3782087 -0.04786,0.4749 -0.4909058,0.720503 -0.875,0.90625 0.5541722,0.109482 0.78535,0.66915 0.90625,1.15625 -0.191282,-0.21438 -0.2830552,0.186281 -0.34375,0.3125 -0.1041667,0.1875 -0.2083333,0.375 -0.3125,0.5625 -0.4627147,-0.731234 -0.6694449,-1.639862 -0.5625,-2.5 0.1879243,-0.933055 0.6958586,-1.8124662 1.5,-2.34375 0.487397,-0.3412186 1.082599,-0.5822656 1.6875,-0.53125 z m 5.4375,0.53125 c -0.577208,0.2962305 -0.305194,1.0537194 -0.09375,1.5 0.314054,0.89497 0.555182,1.847548 0.440709,2.802037 -0.05618,0.808887 -0.273523,1.622656 -0.690709,2.322963 -0.48527,0.648985 -1.013763,1.338858 -1.781756,1.656553 -0.739999,0.461179 -1.648287,0.288773 -2.44269,0.544719 -0.154103,-2.56e-4 -0.02039,0.212062 -0.0568,0.298728 -0.0075,0.381543 0.379883,0.568423 0.712939,0.448562 0.954907,-0.0597 1.910283,-0.283827 2.720416,-0.799965 0.868537,-0.600661 1.545896,-1.486636 1.967937,-2.45019 0.324974,-0.852154 0.465418,-1.761632 0.536208,-2.667157 0.0412,-0.935533 -0.177194,-1.862205 -0.50781,-2.7312449 C 18.286022,9.2079516 18.152723,8.655593 17.71875,8.59375 L 17.65625,8.625 z m -5.09375,1.53125 c 0.592036,0.176371 1.116823,0.698645 1.125,1.34375 0.168627,0.387886 0.501025,0.85637 0.168246,1.257258 -0.397308,0.751399 -1.472914,0.696219 -2.039101,0.172589 -0.155625,-0.07949 -0.281368,-0.192231 -0.379145,-0.336097 0.36257,0.133996 0.277582,-0.382849 0.28125,-0.589057 0,-0.189064 0,-0.378129 0,-0.567193 -0.239583,0 -0.479167,0 -0.71875,0 0.199091,-0.67635 0.747375,-1.483127 1.5625,-1.28125 z m 3.34375,1.71875 c 0.176888,0.815284 0.14048,1.765616 -0.40625,2.4375 0,-0.416667 0,-0.833333 0,-1.25 C 15.333333,12.875 15.166667,12.6875 15,12.5 c 0.239464,-0.324262 0.620171,-0.49973 0.875,-0.8125 l 0.03005,0.18032 0.0012,0.0072 z M 11.875,14.09375 c 0.471561,0.184271 0.966884,0.274074 1.46875,0.21875 0.416667,0.270833 0.833333,0.541667 1.25,0.8125 -0.884676,0.225 -1.83326,0.373428 -2.703051,2.7e-5 -0.55936,-0.20489 -1.058018,-0.540951 -1.546949,-0.875027 0.302303,-0.298446 0.860526,-0.514267 1.252471,-0.315552 l 0.158721,0.0907 0.120058,0.0686 z"
     id="path5577-5"
     style="font-size:medium;font-style:normal;font-variant:normal;font-weight:normal;font-stretch:normal;text-indent:0;text-align:start;text-decoration:none;line-height:normal;letter-spacing:normal;word-spacing:normal;text-transform:none;direction:ltr;block-progression:tb;writing-mode:lr-tb;text-anchor:start;opacity:0.8;color:black;fill:url(#linearGradient4019);fill-opacity:1;stroke:none;stroke-width:2.03124976;marker:none;visibility:visible;display:inline;overflow:visible;enable-background:accumulate;font-family:Andale Mono;-inkscape-font-specification:Andale Mono" />
</svg>

<?xml version="1.0" encoding="UTF-8" standalone="no"?>
<!-- Created with Inkscape (http://www.inkscape.org/) -->
<svg id="svg4289" xmlns="http://www.w3.org/2000/svg" height="24" width="24" version="1.1" xmlns:xlink="http://www.w3.org/1999/xlink">
 <defs id="defs4291">
  <linearGradient id="linearGradient2871" y2="19.599" gradientUnits="userSpaceOnUse" x2="28.06" gradientTransform="matrix(.67783 0 0 .66753 -3.9523 -.83078)" y1="19.599" x1="-2.8532">
   <stop id="stop3929" style="stop-color:#8badea" offset="0"/>
   <stop id="stop3931" style="stop-color:#6396cd" offset=".34315"/>
   <stop id="stop3933" style="stop-color:#3b7caf" offset=".69598"/>
   <stop id="stop3935" style="stop-color:#206494" offset="1"/>
  </linearGradient>
  <linearGradient id="linearGradient3943" y2="30" gradientUnits="userSpaceOnUse" x2="-11" gradientTransform="matrix(.51106 0 0 .49987 -.26455 .25543)" y1="30" x1="30">
   <stop id="stop2788" style="stop-color:#1f4a69" offset="0"/>
   <stop id="stop2790" style="stop-color:#4083c2" offset="1"/>
  </linearGradient>
  <radialGradient id="radialGradient3991" gradientUnits="userSpaceOnUse" cy="4.625" cx="62.625" gradientTransform="matrix(1.2235 0 0 .37647 -64.624 18.259)" r="10.625">
   <stop id="stop8840" offset="0"/>
   <stop id="stop8842" style="stop-opacity:0" offset="1"/>
  </radialGradient>
  <linearGradient id="linearGradient4007" y2="24.491" gradientUnits="userSpaceOnUse" x2="37.661" gradientTransform="matrix(.48837 0 0 .47033 .27925 .98095)" y1="24.491" x1="1.9997">
   <stop id="stop4875" style="stop-color:#fff" offset="0"/>
   <stop id="stop4877" style="stop-color:#fff;stop-opacity:0" offset="1"/>
  </linearGradient>
  <linearGradient id="linearGradient4019" y2="12.517" gradientUnits="userSpaceOnUse" x2="18.982" y1="12.517" x1="6.0052">
   <stop id="stop4122" style="stop-color:#fff" offset="0"/>
   <stop id="stop4124" style="stop-color:#fff;stop-opacity:.23529" offset="1"/>
  </linearGradient>
 </defs>
 <path id="path8836" style="opacity:.3;fill-rule:evenodd;fill:url(#radialGradient3991)" d="m25 20c0 2.209-5.82 4-13 4-7.1797 0-13-1.791-13-4s5.8203-4 13-4 13 1.7909 13 4z"/>
 <path id="path4319" style="stroke-linejoin:round;fill-rule:evenodd;stroke:url(#linearGradient3943);fill:url(#linearGradient2871)" d="m0.50204 5.1407c-0.02258-0.7865 3.4292-1.7546 6.9657-1.6298 3.5363 0.1248 4.4803 1.3282 8.4873 1.4933 3.712 0.1529 7.567-0.9994 7.545-0.1982v14.91c0.03194 1.0591-3.4972 1.7956-7.5052 1.784-4.008-0.012-4.753-1.432-8.5273-1.5-3.7723-0.067-7.0615 1.369-6.9657-0.111v-14.748z"/>
 <path id="path5213" style="opacity:.3;stroke:url(#linearGradient4007);fill:none" d="m1.5002 5.7279c-0.0267-0.5139 3.187-1.3489 6.4157-1.2132 3.2161 0.1351 4.0751 1.2819 7.7211 1.4048 3.686 0.1242 6.879-0.6755 6.863-0.2705v13.714c-0.0083 0.43167-3.178 1.15-6.8273 1.1372-3.646-0.013-4.324-1.428-7.7571-1.499-3.4315-0.07-6.4157 1.066-6.4157-0.017v-13.256z"/>
 <path id="path5577-5" style="opacity:.8;block-progression:tb;text-indent:0;color:black;text-transform:none;fill:url(#linearGradient4019)" d="m11.781 7.0625c-0.87 0.1315-1.692 0.5505-2.3355 1.1492-0.594 0.547-1.007 1.277-1.258 2.0383-0.20998 0.82782-0.30593 1.7381 0.03906 2.5437 0.21237 0.56509 0.49367 1.1051 0.86719 1.5813 0.00716 0.20161-0.26831 0.25786-0.25 0.46875 0.27447-0.22702 0.77934-0.12537 0.90625 0.21875 0.88861 0.6685 1.9611 1.0658 3.0543 1.2546 0.93433 0.08063 1.9271-0.10652 2.727-0.6296 0.82258-0.52311 1.2657-1.4598 1.4077-2.3986 0.17429-0.92077-0.0095-1.8747-0.39547-2.7187-0.465-0.9748-1.017-1.9684-1.912-2.6129-0.79-0.5866-1.784-1-2.782-0.9032l-0.069 0.0086zm-4.6248 0.9375c-0.7345 0.6753-0.9004 1.7473-1.0937 2.688-0.1099 0.854-0.0631 1.723 0.1693 2.552 0.2312 0.906 0.6662 1.75 1.2057 2.51 0.63815 0.73601 1.3581 1.4243 2.2917 1.7625 0.643 0.31361 1.4013 0.59026 2.1145 0.39373 0.34538-0.35886-0.04078-0.88992-0.46875-0.9375-0.876-0.181-1.7124-0.563-2.42-1.119-0.6948-0.617-1.2714-1.404-1.6112-2.272-0.3176-0.864-0.4062-1.789-0.3126-2.703 0.0654-0.748 0.3248-1.4443 0.6876-2.0938 0.1135-0.2685 0.116-0.6497-0.2188-0.75-0.0982-0.07-0.2362-0.0902-0.3438-0.0312zm5.0625 0.09375c0.87814 0.078962 1.7561 0.41208 2.3438 1.0938 0.40987 0.64212 0.98203 1.2037 1.1562 1.9688-0.53125-0.625-1.0625-1.25-1.5938-1.875 0.09375 0.42708 0.1875 0.85417 0.28125 1.2812-0.61537-0.69943-1.3457-1.6005-2.3958-1.4095-0.77736 0.11811-1.5213 0.61925-1.7917 1.3782-0.04786 0.4749-0.49091 0.7205-0.875 0.90625 0.55417 0.10948 0.78535 0.66915 0.90625 1.1562-0.19128-0.21438-0.28306 0.18628-0.34375 0.3125-0.10417 0.1875-0.20833 0.375-0.3125 0.5625-0.46271-0.73123-0.66944-1.6399-0.5625-2.5 0.18792-0.93306 0.69586-1.8125 1.5-2.3438 0.4874-0.34122 1.0826-0.58227 1.6875-0.53125zm5.4375 0.53125c-0.57721 0.29623-0.30519 1.0537-0.09375 1.5 0.31405 0.89497 0.55518 1.8475 0.44071 2.802-0.05618 0.80889-0.27352 1.6227-0.69071 2.323-0.48527 0.64898-1.0138 1.3389-1.7818 1.6566-0.74 0.46118-1.6483 0.28877-2.4427 0.54472-0.1541-0.000256-0.02039 0.21206-0.0568 0.29873-0.0075 0.38154 0.37988 0.56842 0.71294 0.44856 0.95491-0.0597 1.9103-0.28383 2.7204-0.79996 0.86854-0.60066 1.5459-1.4866 1.9679-2.4502 0.32497-0.85215 0.46542-1.7616 0.53621-2.6672 0.0412-0.93553-0.17719-1.8622-0.50781-2.7312-0.174-0.342-0.307-0.8944-0.741-0.9562l-0.063 0.0312zm-5.0938 1.5312c0.59204 0.17637 1.1168 0.69864 1.125 1.3438 0.16863 0.38789 0.50102 0.85637 0.16825 1.2573-0.39731 0.7514-1.4729 0.69622-2.0391 0.17259-0.15562-0.07949-0.28137-0.19223-0.37914-0.3361 0.36257 0.134 0.27758-0.38285 0.28125-0.58906v-0.56719h-0.71875c0.19909-0.67635 0.74738-1.4831 1.5625-1.2812zm3.3438 1.7188c0.17689 0.81528 0.14048 1.7656-0.40625 2.4375v-1.25c-0.167-0.187-0.333-0.374-0.5-0.562 0.23946-0.32426 0.62017-0.49973 0.875-0.8125l0.03005 0.18032 0.0012 0.0072zm-4.031 2.219c0.47156 0.18427 0.96688 0.27407 1.4688 0.21875 0.41667 0.27083 0.83333 0.54167 1.25 0.8125-0.88468 0.225-1.8333 0.37343-2.7031 0.000027-0.55936-0.20489-1.058-0.54095-1.5469-0.87503 0.3023-0.29845 0.86053-0.51427 1.2525-0.31555l0.15872 0.0907 0.12006 0.0686z"/>
</svg>
